packages/elvis-assets-icons/icons/svg/src/move_circle.svg

<svg width="24" height="24" viewBox="0 0 24 24" fill="none" xmlns="http://www.w3.org/2000/svg">
<path fill-rule="evenodd" clip-rule="evenodd" d="M12 1.5C6.20101 1.5 1.5 6.20101 1.5 12C1.5 17.799 6.20101 22.5 12 22.5C17.799 22.5 22.5 17.799 22.5 12C22.5 6.20101 17.799 1.5 12 1.5ZM0 12C0 5.37258 5.37258 0 12 0C18.6274 0 24 5.37258 24 12C24 18.6274 18.6274 24 12 24C5.37258 24 0 18.6274 0 12ZM8.25 8.25C8.25 7.83579 8.58579 7.5 9 7.5H15.4393L13.7197 5.78033C13.4268 5.48744 13.4268 5.01256 13.7197 4.71967C14.0126 4.42678 14.4874 4.42678 14.7803 4.71967L17.7803 7.71967C17.8522 7.79158 17.9065 7.87445 17.9431 7.96291C17.9751 8.04009 17.9946 8.12376 17.999 8.2114C17.9997 8.22419 18 8.23706 18 8.25C18 8.35169 17.9798 8.44866 17.9431 8.53709C17.9065 8.62555 17.8522 8.70842 17.7803 8.78033L14.7803 11.7803C14.4874 12.0732 14.0126 12.0732 13.7197 11.7803C13.4268 11.4874 13.4268 11.0126 13.7197 10.7197L15.4393 9H9C8.58579 9 8.25 8.66421 8.25 8.25ZM8.56066 15L10.2803 13.2803C10.5732 12.9874 10.5732 12.5126 10.2803 12.2197C9.98744 11.9268 9.51256 11.9268 9.21967 12.2197L6.21967 15.2197C6.14776 15.2916 6.09351 15.3745 6.05691 15.4629C6.02024 15.5513 6 15.6483 6 15.75C6 15.8517 6.02024 15.9487 6.05691 16.0371C6.09351 16.1255 6.14776 16.2084 6.21967 16.2803L9.21967 19.2803C9.51256 19.5732 9.98744 19.5732 10.2803 19.2803C10.5732 18.9874 10.5732 18.5126 10.2803 18.2197L8.56066 16.5H15C15.4142 16.5 15.75 16.1642 15.75 15.75C15.75 15.3358 15.4142 15 15 15H8.56066Z" fill="black"/>
</svg>

<svg width="24" height="24" fill="none" xmlns="http://www.w3.org/2000/svg"><path fill-rule="evenodd" clip-rule="evenodd" d="M12 1.5C6.201 1.5 1.5 6.201 1.5 12S6.201 22.5 12 22.5 22.5 17.799 22.5 12 17.799 1.5 12 1.5zM0 12C0 5.373 5.373 0 12 0s12 5.373 12 12-5.373 12-12 12S0 18.627 0 12zm8.25-3.75A.75.75 0 019 7.5h6.44l-1.72-1.72a.75.75 0 011.06-1.06l3 3a.748.748 0 010 1.06l-3 3a.75.75 0 11-1.06-1.06L15.44 9H9a.75.75 0 01-.75-.75zM8.56 15l1.72-1.72a.75.75 0 10-1.06-1.06l-3 3a.748.748 0 000 1.06l3 3a.75.75 0 101.06-1.06L8.56 16.5H15a.75.75 0 000-1.5H8.56z" fill="#000"/></svg>
